X: 7
T: Mouse In The Mug, The
C: Tom McElvogue
Z: Em G
S: https://thesession.org/tunes/362#setting49821
R: jig
M: 6/8
L: 1/8
K: Gmaj
|:GFG E2D|GFG Bdg|~e3 dBG|AGA B2A|
GFG E2D|GFG Bdg| ege dBG|ABA G3:|
gab agf|g2d edB|deg edB|~A3 B2A|
gab agf|g2d edB|deg edB|ABA G3|
gab agf|g2d edB|deg edB|~A3 B2A|
GFG E2D|GFG Bdg| ege dBG|ABA G3||

